X: 1
T: Had The Lass Tel I Won At Hir
T: Had The Lass Till I Win At Her
T: Haud The Lass Till I Come At Her
M: 4/4
L: 1/8
S: William Vickers (1770)
R: reel
K: Amix
Aeeg fdec|Aeeg BGdB|Aeeg fdef|gedg BGdB:|
|:Ag fg/a/ fdec|Ag fg/a/ BGdB|Ag fg/a/ fdef|gedg BGdB:|
